X:140 
T:McDonagh's Reel 2 
B:CRE3.207 (Ril Mhic Dhonncha 2)
F:file ID: cre.3/140mcdon2
R:reel
L:1/8
Q:180
M:C
K:Em
B2A^c BEED|E2BE E2B2|BAFA D3E|(3FED AF (3FED FA|
"5"B2A^c dEED|E2BE E2B2|BAGF GABc|dBAG FDFA||
%B
"9"(3B^cd Ac BEED|E2BE E2B2|BAFA dADE|(3FED AF (3FED FA|
B"13"2A^c BEED|E2BE E2B2|BAGF GABc|dBAG FDFA||
%C
"17"d2ef gfed|fBB2 fBB2|d2ef gfed|^ceae ceae|
"21"d2ef gfed|fBB2 fBB2|a2ge fde^c|dBAG FDFA||

%%%

